**harmony	**harte	**kern	**silbe	**rhyme	**timestamp	**phrase
*M4/4	*M4/4	*ICvox	*	*	*	*
*	*	*VRlead	*	*	*	*
*	*	*Hstimme	*	*	*	*
*A-:	*A-:	*A-:	*	*	*	*
*	*	*M4/4	*	*	*	*
*	*	*clefF4	*	*	*	*
1r;	1r	r;	.	.	0	.
=1	=1	=1	=1	=1	=1	=1
*>Letter>A	*>Letter>A	*>Letter>A	*>Letter>A	*>Letter>A	*>Letter>A	*>Letter>A
*>Label>Intro	*>Label>Intro	*>Label>Intro	*>Label>Intro	*>Label>Intro	*>Label>Intro	*>Label>Intro
2.A-M	A-:maj	1r	.	.	0.522	newline
4D-M	D-:maj/5	.	.	.	2.815	.
=2	=2	=2	=2	=2	=2	=2
1A-M	A-:maj	1r	.	.	3.579	.
=3	=3	=3	=3	=3	=3	=3
2.A-M	A-:maj	1r	.	.	6.636	.
4D-M	D-:maj/5	.	.	.	8.929	.
=4	=4	=4	=4	=4	=4	=4
1A-M	A-:maj	1r	.	.	9.693	.
=5	=5	=5	=5	=5	=5	=5
*>Letter>B	*>Letter>B	*>Letter>B	*>Letter>B	*>Letter>B	*>Letter>B	*>Letter>B
*>Label>Verse	*>Label>Verse	*>Label>Verse	*>Label>Verse	*>Label>Verse	*>Label>Verse	*>Label>Verse
1A-M	A-:maj	4r	.	.	12.75	newline
.	.	8r	.	.	.	.
.	.	16C	Stood	.	.	.
.	.	16BB-	there	.	.	.
.	.	8AA-	bol-	.	.	.
.	.	8AA-	-dly	.	.	.
.	.	4r	.	.	.	.
=6	=6	=6	=6	=6	=6	=6
1A-M	A-:maj	8r	.	.	15.728	.
.	.	16C	swea-	.	.	.
.	.	16C	-tin'	.	.	.
.	.	16C	in	.	.	.
.	.	16BB-	the	.	.	.
.	.	16BB-	sun.	A	.	.
.	.	16AA-	_	.	.	.
.	.	2r	.	.	.	.
=7	=7	=7	=7	=7	=7	=7
1D-M	D-:maj/5	8r	.	.	18.706	.
.	.	16r	.	.	.	.
.	.	16C	Felt	.	.	.
.	.	16C	like	.	.	.
.	.	16BB-	a	.	.	.
.	.	16AA-	mil-	.	.	.
.	.	16AA-	-lion.	A	.	.
.	.	2r	.	.	.	.
=8	=8	=8	=8	=8	=8	=8
1D-M	D-:maj/5	8C	Felt	.	21.683	.
.	.	8D-	like	.	.	.
.	.	16C	num-	.	.	.
.	.	16BB-	-ber	.	.	.
.	.	16BB-	one.	A	.	.
.	.	16AA-	_	.	.	.
.	.	2r	.	.	.	.
=9	=9	=9	=9	=9	=9	=9
1G-M	G-:maj/2	8r	.	.	24.661	newline
.	.	16r	.	.	.	.
.	.	16GG-	The	.	.	.
.	.	16C	height	.	.	.
.	.	8BB-	of	.	.	.
.	.	16BB-	sum-	.	.	.
.	.	16AA-	-mer.	.	.	.
.	.	4r	.	.	.	.
.	.	8r	.	.	.	.
.	.	16DD-	I'd	.	.	.
=10	=10	=10	=10	=10	=10	=10
1D-M	D-:maj/5	16C	ne-	.	27.66	.
.	.	16D-	-ver	.	.	.
.	.	8D-	felt	.	.	.
.	.	8BB-	that	.	.	.
.	.	16BB-	strong.	.	.	.
.	.	8AA-	_	.	.	.
.	.	8r	.	.	.	.
.	.	16r	.	.	.	.
.	.	8FF	Like	.	.	.
.	.	8AA-	a	.	.	.
=11	=11	=11	=11	=11	=11	=11
2.A-M	A-:maj	8AA-	rock.	.	30.658	.
.	.	2r	.	.	.	.
.	.	4r	.	.	.	.
4D-M	D-:maj/5	.	.	.	32.907	.
.	.	8r	.	.	.	.
=12	=12	=12	=12	=12	=12	=12
1A-M	A-:maj	1r	.	.	33.656	.
=13	=13	=13	=13	=13	=13	=13
*>Letter>B	*>Letter>B	*>Letter>B	*>Letter>B	*>Letter>B	*>Letter>B	*>Letter>B
*>Label>Verse	*>Label>Verse	*>Label>Verse	*>Label>Verse	*>Label>Verse	*>Label>Verse	*>Label>Verse
1A-M	A-:maj	4r	.	.	36.654	newline
.	.	8r	.	.	.	.
.	.	16C	I	.	.	.
.	.	16BB-	was	.	.	.
.	.	8BB-	eigh-	.	.	.
.	.	8AA-	-teen	.	.	.
.	.	4r	.	.	.	.
=14	=14	=14	=14	=14	=14	=14
1A-M	A-:maj	8r	.	.	39.623	.
.	.	16C	did-	.	.	.
.	.	16C	-'nt	.	.	.
.	.	16C	have	.	.	.
.	.	16BB-	a	.	.	.
.	.	16BB-	care.	B	.	.
.	.	16AA-	_	.	.	.
.	.	2r	.	.	.	.
=15	=15	=15	=15	=15	=15	=15
1D-M	D-:maj	8r	.	.	42.591	.
.	.	16r	.	.	.	.
.	.	16C	Work-	.	.	.
.	.	16C	-in'	.	.	.
.	.	16BB-	for	.	.	.
.	.	8AA-	pea-	.	.	.
.	.	8AA-	-nuts.	.	.	.
.	.	4r	.	.	.	.
.	.	8r	.	.	.	.
=16	=16	=16	=16	=16	=16	=16
1D-M	D-:maj	16C	Not	.	45.559	.
.	.	16D-	a	.	.	.
.	.	8C	dime	.	.	.
.	.	8BB-	to	.	.	.
.	.	16BB-	spare.	B	.	.
.	.	8.AA-	_	.	.	.
.	.	4r	.	.	.	.
.	.	8r	.	.	.	.
=17	=17	=17	=17	=17	=17	=17
1G-M	G-:sus2	8r	.	.	48.528	newline
.	.	16r	.	.	.	.
.	.	16GG-	but	.	.	.
.	.	16C	I	.	.	.
.	.	16BB-	was	.	.	.
.	.	8AA-	lean	.	.	.
.	.	16AA-	and,	.	.	.
.	.	4r	.	.	.	.
.	.	8r	.	.	.	.
.	.	16r	.	.	.	.
=18	=18	=18	=18	=18	=18	=18
1D-M	D-:maj	16C	so-	.	51.517	.
.	.	16D-	-lid	.	.	.
.	.	16C	eve-	.	.	.
.	.	16BB-	-ry-	.	.	.
.	.	16BB-	-where,	B	.	.
.	.	16AA-	_	.	.	.
.	.	4r	.	.	.	.
.	.	8r	.	.	.	.
.	.	8FF	Like	.	.	.
.	.	8AA-	a	.	.	.
=19	=19	=19	=19	=19	=19	=19
2.A-M	A-:maj	8AA-	rock.	.	54.507	.
.	.	2r	.	.	.	.
.	.	4r	.	.	.	.
4D-M	D-:maj/5	.	.	.	56.749	.
.	.	8r	.	.	.	.
=20	=20	=20	=20	=20	=20	=20
1A-M	A-:maj	1r	.	.	57.496	.
=21	=21	=21	=21	=21	=21	=21
*>Letter>B	*>Letter>B	*>Letter>B	*>Letter>B	*>Letter>B	*>Letter>B	*>Letter>B
*>Label>Verse	*>Label>Verse	*>Label>Verse	*>Label>Verse	*>Label>Verse	*>Label>Verse	*>Label>Verse
1A-M	A-:maj	8r	.	.	60.485	newline
.	.	16r	.	.	.	.
.	.	16AA-	My	.	.	.
.	.	8C	hands	.	.	.
.	.	16BB-	were	.	.	.
.	.	16BB-	stea-	.	.	.
.	.	16AA-	-dy.	.	.	.
.	.	4r	.	.	.	.
.	.	8r	.	.	.	.
.	.	16AA-	My	.	.	.
=22	=22	=22	=22	=22	=22	=22
1A-M	A-:maj	8.C	eyes	.	63.433	.
.	.	16D-	were	.	.	.
.	.	16C	clear	.	.	.
.	.	16BB-	and	.	.	.
.	.	16BB-	bright	C	.	.
.	.	16AA-	_	.	.	.
.	.	2r	.	.	.	.
=23	=23	=23	=23	=23	=23	=23
1D-M	D-:maj	8r	.	.	66.381	.
.	.	16r	.	.	.	.
.	.	16AA-	My	.	.	.
.	.	16C	walk	.	.	.
.	.	8BB-	had	.	.	.
.	.	8BB-	pur-	(D	.	.
.	.	8AA-	-pose.	d)	.	.
.	.	4r	.	.	.	.
.	.	16DD-	My	.	.	.
=24	=24	=24	=24	=24	=24	=24
1D-M	D-:maj	8C	steps	.	69.329	.
.	.	8D-	were	.	.	.
.	.	16C	quick	.	.	.
.	.	16BB-	and	.	.	.
.	.	16BB-	light;	C	.	.
.	.	16AA-	_	.	.	.
.	.	4r	.	.	.	.
.	.	4r	.	.	.	.
=25	=25	=25	=25	=25	=25	=25
1G-M	G-:maj	8.r	.	.	72.277	newline
.	.	16GG-	and	.	.	.
.	.	16C	I	.	.	.
.	.	[16BB-	held	.	.	.
.	.	16BB-]	_	.	.	.
.	.	8BB-	firm-	(D	.	.
.	.	16AA-	-ly	d)	.	.
.	.	4r	.	.	.	.
.	.	16r	.	.	.	.
.	.	16DD-	to	.	.	.
=26	=26	=26	=26	=26	=26	=26
1D-M	D-:maj	16C	what	.	75.224	.
.	.	8D-	I	.	.	.
.	.	16C	felt	.	.	.
.	.	8BB-	was	.	.	.
.	.	16BB-	right.	C	.	.
.	.	16AA-	_	.	.	.
.	.	4r	.	.	.	.
.	.	8FF	Like	.	.	.
.	.	8AA-	a	.	.	.
=27	=27	=27	=27	=27	=27	=27
2.A-M	A-:maj	8AA-	rock.	.	78.171	.
.	.	4r	.	.	.	.
.	.	8r	.	.	.	.
.	.	2r	.	.	.	.
4D-M	D-:maj/5	.	.	.	80.381	.
=28	=28	=28	=28	=28	=28	=28
1A-M	A-:maj	2.r	.	.	81.118	.
.	.	8FF	Like	.	.	.
.	.	8AA-	a	.	.	.
=29	=29	=29	=29	=29	=29	=29
*>Letter>B	*>Letter>B	*>Letter>B	*>Letter>B	*>Letter>B	*>Letter>B	*>Letter>B
*>Label>Chorus	*>Label>Chorus	*>Label>Chorus	*>Label>Chorus	*>Label>Chorus	*>Label>Chorus	*>Label>Chorus
1A-M	A-:maj	8AA-	rock.	.	84.065	newline
.	.	4r	.	.	.	.
.	.	2r	.	.	.	.
.	.	16C	I	.	.	.
.	.	16E-	was	.	.	.
=30	=30	=30	=30	=30	=30	=30
1A-M	A-:maj	8.F	strong	.	87.003	.
.	.	16E-	as	.	.	.
.	.	16E-	I	.	.	.
.	.	16C	could	.	.	.
.	.	16E-	be,	E	.	.
.	.	32C	_	.	.	.
.	.	32BB-	_	.	.	.
.	.	16AA-	_	.	.	.
.	.	16r	.	.	.	.
.	.	8r	.	.	.	.
.	.	8FF	Like	.	.	.
.	.	8AA-	a	.	.	.
=31	=31	=31	=31	=31	=31	=31
1D-M	D-:maj	8AA-	rock.	.	89.942	.
.	.	4r	.	.	.	.
.	.	2r	.	.	.	.
.	.	16C	No-	.	.	.
.	.	16E-	-thin'	.	.	.
=32	=32	=32	=32	=32	=32	=32
1D-M	D-:maj	8F	e-	.	92.881	.
.	.	16E-	-ver	.	.	.
.	.	8E-	got	.	.	.
.	.	16C	to	.	.	.
.	.	32C	me,	E	.	.
.	.	32BB-	_	.	.	.
.	.	16AA-	_	.	.	.
.	.	4r	.	.	.	.
.	.	8FF	Like	.	.	.
.	.	8AA-	a	.	.	.
=33	=33	=33	=33	=33	=33	=33
1G-M	G-:maj	8AA-	rock.	.	95.819	newline
.	.	4r	.	.	.	.
.	.	2r	.	.	.	.
.	.	16DD-	I	.	.	.
.	.	16DD-	was	.	.	.
=34	=34	=34	=34	=34	=34	=34
1D-M	D-:maj	24BB-	some-	.	98.749	.
.	.	24C-	-thin'	.	.	.
.	.	24C-	to	.	.	.
.	.	16BB-	see,	E	.	.
.	.	8AA-	_	.	.	.
.	.	16r	.	.	.	.
.	.	4r	.	.	.	.
.	.	8r	.	.	.	.
.	.	8FF	Like	.	.	.
.	.	8AA-	a	.	.	.
=35	=35	=35	=35	=35	=35	=35
2.A-M	A-:maj	8AA-	rock.	.	101.678	.
.	.	4.r	.	.	.	.
.	.	2r	.	.	.	.
4D-M	D-:maj/5	.	.	.	103.875	.
=36	=36	=36	=36	=36	=36	=36
1A-M	A-:maj	4r	.	.	104.607	.
.	.	8r	.	.	.	.
.	.	8r	.	.	.	.
.	.	4r	.	.	.	.
.	.	8r	.	.	.	.
.	.	16E-	And	.	.	.
.	.	16F	I	.	.	.
=37	=37	=37	=37	=37	=37	=37
*>Letter>C	*>Letter>C	*>Letter>C	*>Letter>C	*>Letter>C	*>Letter>C	*>Letter>C
*>Label>Bridge	*>Label>Bridge	*>Label>Bridge	*>Label>Bridge	*>Label>Bridge	*>Label>Bridge	*>Label>Bridge
1Fm	F:min	4c-	stood	.	107.537	newline
.	.	16B-	arr-	.	.	.
.	.	[16A-	-ow	.	.	.
.	.	8A-]	_	.	.	.
.	.	8A-	straight,	F	.	.
.	.	4r	.	.	.	.
.	.	16A-	un-	.	.	.
.	.	[16B-	-em-	.	.	.
=38	=38	=38	=38	=38	=38	=38
1Fm	F:min	16B-]	_	.	110.466	.
.	.	16B-	-cum-	.	.	.
.	.	8A-	-bered	.	.	.
.	.	16A-	by	.	.	.
.	.	[16A-	the	.	.	.
.	.	16A-]	_	.	.	.
.	.	8.A-	weight	F	.	.
.	.	16F	of	.	.	.
.	.	8F	all	.	.	.
.	.	8.F	these	.	.	.
=39	=39	=39	=39	=39	=39	=39
1A-M	A-:maj	8F	hustl-	.	113.395	.
.	.	8E-	-ers	.	.	.
.	.	16E-	and	.	.	.
.	.	8E-	their	.	.	.
.	.	[16E-	schemes	G	.	.
.	.	4E-]	_	.	.	.
.	.	4r	.	.	.	.
=40	=40	=40	=40	=40	=40	=40
1A-M	A-:maj	2r	.	.	116.324	.
.	.	8.r	.	.	.	.
.	.	8A-	I	.	.	.
.	.	8A-	stood	.	.	.
.	.	[16A-	proud.	.	.	.
=41	=41	=41	=41	=41	=41	=41
1D-M	D-:maj	4A-]	_	.	119.254	newline
.	.	8A-	I	.	.	.
.	.	8A-	stood	.	.	.
.	.	32F	tall,	H	.	.
.	.	32E-	_	.	.	.
.	.	16D-	_	.	.	.
.	.	4r	.	.	.	.
.	.	8r	.	.	.	.
=42	=42	=42	=42	=42	=42	=42
1D-M	D-:maj	16A-	High	.	122.141	.
.	.	16B-	_	.	.	.
.	.	[8A-	_	.	.	.
.	.	32A-]	_	.	.	.
.	.	32A-	a-	.	.	.
.	.	16A-	-bove	.	.	.
.	.	16A-	it	.	.	.
.	.	32F	all.	H	.	.
.	.	32E-	_	.	.	.
.	.	16D-	_	.	.	.
.	.	4r	.	.	.	.
.	.	8r	.	.	.	.
.	.	16D-	I	.	.	.
=43	=43	=43	=43	=43	=43	=43
1B-m	B-:min	4c-	still	.	125.029	.
.	.	8B-	be-	.	.	.
.	.	[8B-	-lieved	.	.	.
.	.	12B-]	_	.	.	.
.	.	12B-	in	.	.	.
.	.	12B-	my	.	.	.
.	.	32G-	dreams.	G	.	.
.	.	32F	_	.	.	.
.	.	8.E-	_	.	.	.
=44	=44	=44	=44	=44	=44	=44
1E-M	E-:maj	1r	.	.	127.917	.
=45	=45	=45	=45	=45	=45	=45
*>Letter>B	*>Letter>B	*>Letter>B	*>Letter>B	*>Letter>B	*>Letter>B	*>Letter>B
*>Label>Solo	*>Label>Solo	*>Label>Solo	*>Label>Solo	*>Label>Solo	*>Label>Solo	*>Label>Solo
1A-M	A-:maj	1r	.	.	130.805	newline
=46	=46	=46	=46	=46	=46	=46
1A-M	A-:maj	1r	.	.	133.721	.
=47	=47	=47	=47	=47	=47	=47
1D-M	D-:maj	1r	.	.	136.638	.
=48	=48	=48	=48	=48	=48	=48
1D-M	D-:maj	1r	.	.	139.555	.
=49	=49	=49	=49	=49	=49	=49
1G-M	G-:maj	1r	.	.	142.471	newline
=50	=50	=50	=50	=50	=50	=50
1D-M	D-:maj	1r	.	.	145.392	.
=51	=51	=51	=51	=51	=51	=51
2.A-M	A-:maj	1r	.	.	148.313	.
4D-M	D-:maj/5	.	.	.	150.504	.
=52	=52	=52	=52	=52	=52	=52
1A-M	A-:maj	1r	.	.	151.234	.
=53	=53	=53	=53	=53	=53	=53
1A-M	A-:maj	1r	.	.	154.154	newline
=54	=54	=54	=54	=54	=54	=54
1A-M	A-:maj	1r	.	.	157.022	.
=55	=55	=55	=55	=55	=55	=55
1D-M	D-:maj	1r	.	.	159.89	.
=56	=56	=56	=56	=56	=56	=56
1D-M	D-:maj	1r	.	.	162.757	.
=57	=57	=57	=57	=57	=57	=57
1G-M	G-:maj	1r	.	.	165.625	newline
=58	=58	=58	=58	=58	=58	=58
1D-M	D-:maj	1r	.	.	168.489	.
=59	=59	=59	=59	=59	=59	=59
2.A-M	A-:maj	1r	.	.	171.352	.
4D-M	D-:maj/5	.	.	.	173.5	.
=60	=60	=60	=60	=60	=60	=60
1A-M	A-:maj	1r	.	.	174.216	.
=61	=61	=61	=61	=61	=61	=61
*>Letter>A	*>Letter>A	*>Letter>A	*>Letter>A	*>Letter>A	*>Letter>A	*>Letter>A
*>Label>Interlude	*>Label>Interlude	*>Label>Interlude	*>Label>Interlude	*>Label>Interlude	*>Label>Interlude	*>Label>Interlude
2.A-M	A-:maj	1r	.	.	177.08	newline
4D-M	D-:maj/5	.	.	.	179.307	.
=62	=62	=62	=62	=62	=62	=62
1A-M	A-:maj	1r	.	.	180.05	.
=63	=63	=63	=63	=63	=63	=63
2.A-M	A-:maj	1r	.	.	183.02	.
4D-M	D-:maj/5	.	.	.	185.248	.
=64	=64	=64	=64	=64	=64	=64
1A-M	A-:maj	1r	.	.	185.99	.
=65	=65	=65	=65	=65	=65	=65
*>Letter>B	*>Letter>B	*>Letter>B	*>Letter>B	*>Letter>B	*>Letter>B	*>Letter>B
*>Label>Verse	*>Label>Verse	*>Label>Verse	*>Label>Verse	*>Label>Verse	*>Label>Verse	*>Label>Verse
1A-M	A-:maj	4r	.	.	188.96	newline
.	.	8r	.	.	.	.
.	.	16BB-	Twen-	.	.	.
.	.	16AA-	-ty	.	.	.
.	.	8AA-	years	.	.	.
.	.	8AA-	now.	.	.	.
.	.	4r	.	.	.	.
=66	=66	=66	=66	=66	=66	=66
1A-M	A-:maj	8r	.	.	191.961	.
.	.	16r	.	.	.	.
.	.	8BB-	Where'd	.	.	.
.	.	[16C	they	.	.	.
.	.	16C]	_	.	.	.
.	.	8AA-	go?.	I	.	.
.	.	8.r	.	.	.	.
.	.	4r	.	.	.	.
=67	=67	=67	=67	=67	=67	=67
1D-M	D-:maj	16r	.	.	194.961	.
.	.	4r	.	.	.	.
.	.	16r	.	.	.	.
.	.	32BB-	Twen-	.	.	.
.	.	32BB-	-ty	.	.	.
.	.	32BB-	years.	.	.	.
.	.	16.AA-	_	.	.	.
.	.	8.r	.	.	.	.
.	.	4r	.	.	.	.
=68	=68	=68	=68	=68	=68	=68
1D-M	D-:maj	16r	.	.	197.962	.
.	.	8BB-	I	.	.	.
.	.	8BB-	don't	.	.	.
.	.	16BB-	know.	I	.	.
.	.	16AA-	_	.	.	.
.	.	2r	.	.	.	.
.	.	16r	.	.	.	.
=69	=69	=69	=69	=69	=69	=69
1G-M	G-:maj	8.r	.	.	200.963	newline
.	.	16GG-	I	.	.	.
.	.	16C	sit;	.	.	.
.	.	16BB-	and	.	.	.
.	.	16BB-	I	.	.	.
.	.	16BB-	won-	.	.	.
.	.	16AA-	-der	.	.	.
.	.	8AA-	some-	.	.	.
.	.	[16AA-	-times	.	.	.
.	.	4AA-]	_	.	.	.
=70	=70	=70	=70	=70	=70	=70
1D-M	D-:maj	4r	.	.	203.904	.
.	.	8r	.	.	.	.
.	.	4r	.	.	.	.
.	.	8r	.	.	.	.
.	.	16FF	where	.	.	.
.	.	8.AA-	they've	.	.	.
=71	=71	=71	=71	=71	=71	=71
2.A-M	A-:maj	4AA-	gone;	.	206.845	.
.	.	4r	.	.	.	.
.	.	2r	.	.	.	.
4D-M	D-:maj/5	.	.	.	209.051	.
=72	=72	=72	=72	=72	=72	=72
1A-M	A-:maj	1r	.	.	209.786	.
=73	=73	=73	=73	=73	=73	=73
*>Letter>B	*>Letter>B	*>Letter>B	*>Letter>B	*>Letter>B	*>Letter>B	*>Letter>B
*>Label>Verse	*>Label>Verse	*>Label>Verse	*>Label>Verse	*>Label>Verse	*>Label>Verse	*>Label>Verse
1A-M	A-:maj	2r	.	.	212.727	newline
.	.	16r	.	.	.	.
.	.	16AA-	And	.	.	.
.	.	8E-	some-	.	.	.
.	.	8E-	-times	.	.	.
.	.	8F	late	.	.	.
=74	=74	=74	=74	=74	=74	=74
1A-M	A-:maj	16A-	at	.	215.651	.
.	.	8.A-	night,	J	.	.
.	.	4r	.	.	.	.
.	.	2r	.	.	.	.
=75	=75	=75	=75	=75	=75	=75
1D-M	D-:maj	4r	.	.	218.575	.
.	.	8r	.	.	.	.
.	.	4A-	Oh	.	.	.
.	.	16A-	when	.	.	.
.	.	16A-	I'm	.	.	.
.	.	16A-	bathed	.	.	.
.	.	16F	_	.	.	.
.	.	16BB-	in	.	.	.
.	.	16BB-	the	.	.	.
=76	=76	=76	=76	=76	=76	=76
1D-M	D-:maj	16C	fire-	.	221.499	.
.	.	16AA-	_	.	.	.
.	.	16BB-	-light:	J	.	.
.	.	16AA-	_	.	.	.
.	.	8r	.	.	.	.
.	.	2r	.	.	.	.
.	.	8r	.	.	.	.
=77	=77	=77	=77	=77	=77	=77
1G-M	G-:maj	8r	.	.	224.423	newline
.	.	16AA-	The	.	.	.
.	.	8G-	moon	.	.	.
.	.	[16G-	comes	.	.	.
.	.	8G-]	_	.	.	.
.	.	8G-	call-	.	.	.
.	.	16G-	-in'	.	.	.
.	.	16G-	a	.	.	.
.	.	16G-	ghos-	.	.	.
.	.	16F	_	.	.	.
.	.	16F	-tly	.	.	.
.	.	16F	white;	J	.	.
=78	=78	=78	=78	=78	=78	=78
1D-M	D-:maj	2r	.	.	227.293	.
.	.	4r	.	.	.	.
.	.	16r	.	.	.	.
.	.	16FF	and	.	.	.
.	.	16FF	I	.	.	.
.	.	16AA-	re-	.	.	.
=79	=79	=79	=79	=79	=79	=79
2.A-M	A-:maj	4AA-	-call.	.	230.164	.
.	.	4r	.	.	.	.
.	.	4r	.	.	.	.
4D-M	D-:maj/5	16r	.	.	232.317	.
.	.	8F	I	.	.	.
.	.	16A-	re-	.	.	.
=80	=80	=80	=80	=80	=80	=80
1A-M	A-:maj	4A-	-call.	H	233.035	.
.	.	4r	.	.	.	.
.	.	8r	.	.	.	.
.	.	8r	.	.	.	.
.	.	8F	Like	.	.	.
.	.	8A-	a	.	.	.
=81	=81	=81	=81	=81	=81	=81
*>Letter>B	*>Letter>B	*>Letter>B	*>Letter>B	*>Letter>B	*>Letter>B	*>Letter>B
*>Label>Chorus	*>Label>Chorus	*>Label>Chorus	*>Label>Chorus	*>Label>Chorus	*>Label>Chorus	*>Label>Chorus
1A-M	A-:maj	8A-	rock.	.	235.905	newline
.	.	4.r	.	.	.	.
.	.	2r	.	.	.	.
=82	=82	=82	=82	=82	=82	=82
1A-M	A-:maj	8c	Stand-	.	238.771	.
.	.	16B-	_	.	.	.
.	.	16B-	-in'	.	.	.
.	.	16B-	arr-	.	.	.
.	.	[16A-	-ow	.	.	.
.	.	16A-]	_	.	.	.
.	.	8.A-	straight,	F	.	.
.	.	8r	.	.	.	.
.	.	8F	Like	.	.	.
.	.	8A-	a	.	.	.
=83	=83	=83	=83	=83	=83	=83
1D-M	D-:maj	8A-	rock.	.	241.637	.
.	.	8r	.	.	.	.
.	.	4r	.	.	.	.
.	.	2r	.	.	.	.
=84	=84	=84	=84	=84	=84	=84
1D-M	D-:maj	8c	Char-	.	244.503	.
.	.	16B-	_	.	.	.
.	.	16B-	-gin'	.	.	.
.	.	16B-	from	.	.	.
.	.	16A-	the	.	.	.
.	.	8A-	gate,	F	.	.
.	.	4r	.	.	.	.
.	.	8F	Like	.	.	.
.	.	8A-	a	.	.	.
=85	=85	=85	=85	=85	=85	=85
1G-M	G-:maj	8A-	rock.	.	247.369	newline
.	.	8r	.	.	.	.
.	.	4r	.	.	.	.
.	.	2r	.	.	.	.
=86	=86	=86	=86	=86	=86	=86
1D-M	D-:maj	16c-	Car-	.	250.251	.
.	.	16B-	-ry-	.	.	.
.	.	16B-	-in'	.	.	.
.	.	16A-	the	.	.	.
.	.	8A-	weight,	F	.	.
.	.	4r	.	.	.	.
.	.	8r	.	.	.	.
.	.	8F	Like	.	.	.
.	.	8A-	a	.	.	.
=87	=87	=87	=87	=87	=87	=87
2.A-M	A-:maj	8A-	rock.	.	253.133	.
.	.	8r	.	.	.	.
.	.	4r	.	.	.	.
.	.	2r	.	.	.	.
4D-M	D-:maj/5	.	.	.	255.295	.
=88	=88	=88	=88	=88	=88	=88
1A-M	A-:maj	2r	.	.	256.015	.
.	.	8r	.	.	.	.
.	.	8A-	Oh	.	.	.
.	.	8F	like	.	.	.
.	.	8A-	a	.	.	.
=89	=89	=89	=89	=89	=89	=89
*>Letter>B	*>Letter>B	*>Letter>B	*>Letter>B	*>Letter>B	*>Letter>B	*>Letter>B
*>Label>Chorus	*>Label>Chorus	*>Label>Chorus	*>Label>Chorus	*>Label>Chorus	*>Label>Chorus	*>Label>Chorus
1A-M	A-:maj	8A-	rock.	.	258.897	newline
.	.	8r	.	.	.	.
.	.	4r	.	.	.	.
.	.	4..r	.	.	.	.
.	.	16E-	The	.	.	.
=90	=90	=90	=90	=90	=90	=90
1A-M	A-:maj	16c	sun	.	261.74	.
.	.	8B-	u-	.	.	.
.	.	8B-	-pon	.	.	.
.	.	[16A-	my	.	.	.
.	.	8A-]	_	.	.	.
.	.	8A-	skin,	K	.	.
.	.	8r	.	.	.	.
.	.	8F	Like	.	.	.
.	.	8A-	a	.	.	.
=91	=91	=91	=91	=91	=91	=91
1D-M	D-:maj	8A-	rock.	.	264.582	.
.	.	8r	.	.	.	.
.	.	4r	.	.	.	.
.	.	4..r	.	.	.	.
.	.	[16c-	Hard	.	.	.
=92	=92	=92	=92	=92	=92	=92
1D-M	D-:maj	8c-]	_	.	267.425	.
.	.	16B-	_	.	.	.
.	.	16B-	a-	.	.	.
.	.	8B-	-gainst	.	.	.
.	.	16A-	the	.	.	.
.	.	8.A-	wind,	K	.	.
.	.	8r	.	.	.	.
.	.	8F	Like	.	.	.
.	.	8A-	a	.	.	.
=93	=93	=93	=93	=93	=93	=93
1G-M	G-:maj	8A-	rock.	.	270.267	newline
.	.	8r	.	.	.	.
.	.	4r	.	.	.	.
.	.	4r	.	.	.	.
.	.	16r	.	.	.	.
.	.	8.c-	I	.	.	.
=94	=94	=94	=94	=94	=94	=94
1D-M	D-:maj	16c-	see	.	273.079	.
.	.	8B-	my-	.	.	.
.	.	16B-	-self	.	.	.
.	.	16A-	a-	.	.	.
.	.	[16A-	-gain,	K	.	.
.	.	8A-]	_	.	.	.
.	.	4r	.	.	.	.
.	.	8F	like	.	.	.
.	.	8A-	a	.	.	.
=95	=95	=95	=95	=95	=95	=95
2.A-M	A-:maj	8A-	rock.	.	275.89	.
.	.	4r	.	.	.	.
.	.	8r	.	.	.	.
.	.	16r	.	.	.	.
.	.	16c-	Oh	.	.	.
.	.	4B-	_	.	.	.
4D-M	D-:maj/5	.	.	.	277.999	.
.	.	16B-	like	.	.	.
.	.	16A-	a	.	.	.
=96	=96	=96	=96	=96	=96	=96
1A-M	A-:maj	4A-	rock.	.	278.702	.
.	.	4r	.	.	.	.
.	.	2r	.	.	.	.
=97	=97	=97	=97	=97	=97	=97
*>Letter>B	*>Letter>B	*>Letter>B	*>Letter>B	*>Letter>B	*>Letter>B	*>Letter>B
*>Label>Outro	*>Label>Outro	*>Label>Outro	*>Label>Outro	*>Label>Outro	*>Label>Outro	*>Label>Outro
1A-M	A-:maj	1r	.	.	281.513	newline
=98	=98	=98	=98	=98	=98	=98
1A-M	A-:maj	1r	.	.	284.33	.
=99	=99	=99	=99	=99	=99	=99
1D-M	D-:maj	1r	.	.	287.146	.
=100	=100	=100	=100	=100	=100	=100
1D-M	D-:maj	1r	.	.	289.963	.
=101	=101	=101	=101	=101	=101	=101
1G-M	G-:maj	1r	.	.	292.779	newline
=102	=102	=102	=102	=102	=102	=102
1D-M	D-:maj	1r	.	.	295.582	.
=103	=103	=103	=103	=103	=103	=103
2.A-M	A-:maj	1r	.	.	298.384	.
4D-M	D-:maj/5	.	.	.	300.486	.
=104	=104	=104	=104	=104	=104	=104
1A-M	A-:maj	4r	.	.	301.187	.
.	.	8r	.	.	.	.
.	.	4c-	Oh.	.	.	.
.	.	8B-	_	.	.	.
.	.	4r	.	.	.	.
=105	=105	=105	=105	=105	=105	=105
1A-M	A-:maj	1r	.	.	303.99	newline
=106	=106	=106	=106	=106	=106	=106
1A-M	A-:maj	1r	.	.	306.786	.
=107	=107	=107	=107	=107	=107	=107
1D-M	D-:maj	1r	.	.	309.583	.
=108	=108	=108	=108	=108	=108	=108
1D-M	D-:maj	1r	.	.	312.379	.
=109	=109	=109	=109	=109	=109	=109
1G-M	G-:maj	1r	.	.	315.176	newline
=110	=110	=110	=110	=110	=110	=110
1D-M	D-:maj	1r	.	.	317.938	.
=111	=111	=111	=111	=111	=111	=111
2.A-M	A-:maj	1r	.	.	320.7	.
4D-M	D-:maj/5	.	.	.	322.772	.
=112	=112	=112	=112	=112	=112	=112
1A-M	A-:maj	1r	.	.	323.463	.
=113	=113	=113	=113	=113	=113	=113
1A-M	A-:maj	1r	.	.	326.225	newline
=114	=114	=114	=114	=114	=114	=114
1A-M	A-:maj	1r	.	.	328.996	.
=115	=115	=115	=115	=115	=115	=115
1D-M	D-:maj	1r	.	.	331.767	.
=116	=116	=116	=116	=116	=116	=116
1D-M	D-:maj	1r	.	.	334.539	.
=117	=117	=117	=117	=117	=117	=117
1G-M	G-:maj	1r	.	.	337.31	newline
=118	=118	=118	=118	=118	=118	=118
1D-M	D-:maj	1r	.	.	340.059	.
=119	=119	=119	=119	=119	=119	=119
1A-M	A-:maj	1r	.	.	342.808	.
=120	=120	=120	=120	=120	=120	=120
1A-M	A-:maj	1r	.	.	344.87	.
1r;	1r	r;	.	.	353.804	.
1r;	1r	r;	.	.	355.004	.
*-	*-	*-	*-	*-	*-	*-
!!!BillboardChartDate: 1986/08/16
!!!BillboardPeak: 12
!!!BillboardWeeksOnChart: 13
!!!COC: Bob Seger
!!!ENC: Nathaniel Condit-Schultz
!!!EST: Awating manual error checking and editing.
!!!OTL: Like A Rock
!!!RDF**chordsym: original McGill chord annotation + (implied pitch class set, with bass pitch in first position)
!!!RDF**harmony: **recip + pitch class of root + harmonic quality
!!!RDF**leadinstrument: original McGill primary instrumentation annotation
!!!RDF**phrase: newline = linebreak in original McGill transcription
!!!RDF**timestamp: McGill audio timestamp in seconds
!!!RDT: 2017/01/12/
!!!SampleActualRank: 91
!!!SampleID#: 0941
!!!SampleTargetRank: 93
!!!MBID: 0492d48d-2e03-41a2-a08b-24bbf839b6dd